img/svg/award.svg

<svg width="78" height="78" viewBox="0 0 78 78" fill="none" xmlns="http://www.w3.org/2000/svg">
<g clip-path="url(#clip0)">
<path d="M40.4639 12.4899C40.4639 13.3307 39.782 14.0133 38.9405 14.0133C38.099 14.0133 37.4171 13.3307 37.4171 12.4899C37.4171 11.6484 38.099 10.9658 38.9405 10.9658C39.782 10.9658 40.4639 11.6484 40.4639 12.4899Z" fill="white"/>
<path d="M57.2224 29.2484C57.2224 21.5003 52.3759 14.8246 45.4806 12.1752C44.6951 11.8735 43.8138 12.2657 43.5114 13.0506C43.2103 13.8361 43.6019 14.7175 44.3874 15.0198C50.2419 17.2692 54.1755 22.9869 54.1755 29.2484C54.1755 37.6493 47.3415 44.4834 38.9405 44.4834C30.5402 44.4834 23.7056 37.6493 23.7056 29.2484C23.7056 22.9869 27.6391 17.2692 33.4937 15.0198C34.2792 14.7175 34.6707 13.8361 34.3696 13.0506C34.0673 12.2657 33.186 11.8735 32.4011 12.1752C25.5057 14.8246 20.6587 21.4997 20.6587 29.2484C20.6587 39.3287 28.8597 47.5303 38.9405 47.5303C49.0214 47.5303 57.2224 39.3287 57.2224 29.2484Z" fill="white"/>
<path d="M60.2651 46.3049C60.6728 46.1948 61.0798 46.0853 61.472 45.98C63.897 45.3266 65.3436 42.8213 64.6968 40.3939C64.3623 39.1406 63.9833 37.7195 63.7006 36.6454C63.5625 36.1217 63.7119 35.5778 64.0999 35.1898L66.8117 32.4779C68.5917 30.6974 68.594 27.8017 66.8183 26.023C65.9012 25.1035 64.8652 24.0621 64.0815 23.273C63.7006 22.8898 63.5584 22.3447 63.7006 21.8145L64.692 18.1124C65.346 15.6731 63.9011 13.1678 61.4607 12.5144L57.7574 11.5217C57.2278 11.3801 56.8267 10.9838 56.6844 10.4625C56.3923 9.38893 56.0102 7.97082 55.6722 6.71696C55.0188 4.29136 52.5134 2.84529 50.0867 3.49156C48.8328 3.826 47.4117 4.20507 46.3382 4.48774C45.8145 4.6258 45.27 4.47644 44.8903 4.09677L42.1713 1.33851C40.392 -0.442603 37.4957 -0.446173 35.7146 1.33077C34.8219 2.22163 33.7097 3.36837 32.9652 4.10688C32.5826 4.48774 32.0375 4.63116 31.5067 4.48834L27.804 3.49691C25.3671 2.84291 22.8629 4.28065 22.2089 6.71815C21.8709 7.97261 21.4871 9.3919 21.1967 10.4619C21.0545 10.9838 20.6534 11.3801 20.1225 11.5223L16.4205 12.5144C13.9812 13.1678 12.5351 15.6719 13.1891 18.1124L14.1811 21.8145C14.3228 22.3447 14.1805 22.8898 13.7985 23.2742C13.0165 24.0627 11.9799 25.1035 11.0646 26.0218C9.28709 27.8017 9.28947 30.698 11.07 32.4779L13.7818 35.1898C14.1692 35.5778 14.3186 36.1217 14.1811 36.6454C13.9865 37.3827 13.7717 38.1914 13.1861 40.3921C12.5345 42.8284 13.9794 45.3284 16.4187 45.9806L17.6172 46.302L5.078 68.0996C4.7864 68.6066 4.8108 69.2362 5.14108 69.7195C5.47135 70.2027 6.04978 70.4538 6.62821 70.3651L15.0672 69.0803L18.173 77.0308C18.3867 77.5771 18.8943 77.952 19.4786 77.996C19.5167 77.999 19.5548 78.0002 19.5929 78.0002C20.1344 78.0002 20.6397 77.711 20.9128 77.2361L33.6603 55.079C34.3143 55.7294 35.0475 56.4596 35.7164 57.1261C37.4927 58.9001 40.3855 58.9036 42.1642 57.1273C42.8337 56.4602 43.5668 55.73 44.2214 55.079L56.9689 77.2361C57.2421 77.711 57.7467 78.0002 58.2888 78.0002C58.3269 78.0002 58.365 77.999 58.4031 77.996C58.9875 77.952 59.4951 77.5771 59.7081 77.0314L62.8145 69.0803L71.2535 70.3651C71.8319 70.455 72.4098 70.2027 72.7401 69.7195C73.0709 69.2362 73.0953 68.6066 72.8031 68.0996L60.2651 46.3049ZM19.8553 72.9639L17.4613 66.8362C17.2024 66.1727 16.5175 65.777 15.8129 65.8841L9.29661 66.8767L20.6129 47.2047C20.895 47.4023 21.1027 47.6897 21.1961 48.0325C21.4871 49.1042 21.8709 50.5235 22.2083 51.7762C22.8618 54.2125 25.3641 55.655 27.8034 54.9998L30.6247 54.2441L19.8553 72.9639ZM40.0117 54.9701C39.4214 55.5604 38.4597 55.5604 37.8682 54.9689C36.947 54.0513 35.9026 53.011 35.1129 52.2279C34.0043 51.1264 32.3398 50.6289 30.7188 51.0651L27.0143 52.0565C26.2121 52.2719 25.3713 51.8083 25.1505 50.9853C24.8125 49.7291 24.428 48.308 24.1364 47.2333C23.7121 45.6765 22.4761 44.4494 20.911 44.0311L17.2066 43.0373C16.3967 42.8207 15.9117 41.9935 16.1301 41.177C16.5526 39.5887 16.8965 38.2956 17.1268 37.4208C17.5375 35.861 17.081 34.1805 15.9355 33.0355L13.2236 30.3237C12.6309 29.7304 12.6291 28.7669 13.2212 28.1742C14.1389 27.253 15.1773 26.2098 15.9605 25.4213C17.0977 24.2776 17.5434 22.5934 17.1239 21.0266L16.1318 17.3239C15.914 16.511 16.3955 15.6755 17.209 15.4577L20.9104 14.4657C22.4761 14.0473 23.7121 12.8202 24.137 11.2617C24.428 10.1881 24.8125 8.76765 25.1511 7.50962C25.3677 6.70149 26.1978 6.22125 27.0149 6.43965L30.7188 7.43167C32.2856 7.8518 33.9692 7.40608 35.1129 6.26886C35.8913 5.49643 36.978 4.37527 37.867 3.48739C38.4591 2.89706 39.4232 2.89825 40.0082 3.48442L42.7277 6.24327C43.8733 7.38882 45.5532 7.84526 47.1142 7.43464C48.1907 7.15078 49.6159 6.77111 50.8722 6.43548C51.6797 6.22065 52.5128 6.70208 52.7307 7.50962C53.0693 8.76587 53.4519 10.1875 53.7447 11.2635C54.169 12.8202 55.405 14.0473 56.9701 14.4657L60.6722 15.4577C61.4851 15.6755 61.9677 16.5104 61.7493 17.3245L60.7573 21.0266C60.3371 22.5929 60.7834 24.277 61.9201 25.4201C62.7038 26.2104 63.7422 27.253 64.6611 28.1754C65.252 28.7669 65.2502 29.7304 64.6569 30.3237L61.9451 33.0355C60.8001 34.1811 60.3437 35.861 60.7543 37.4214C61.0376 38.4985 61.4178 39.9237 61.7534 41.1794C61.9683 41.9869 61.4863 42.8207 60.6811 43.0379C58.7762 43.5485 56.9981 44.0335 56.935 44.0507C55.358 44.4786 54.1624 45.6759 53.737 47.2517C53.4519 48.3015 53.0169 49.9201 52.7301 50.9853C52.5152 51.7869 51.6898 52.2773 50.8662 52.0565L47.1642 51.0657C45.5288 50.6253 43.8673 51.1359 42.7688 52.2273C41.9785 53.011 40.9341 54.0513 40.0117 54.9701ZM62.0683 65.8841C61.3637 65.7776 60.6787 66.1727 60.4198 66.8362L58.0258 72.9639L47.2564 54.2441L50.0771 54.9998C52.5128 55.6538 55.0182 54.2149 55.6728 51.7762C55.987 50.608 56.3845 49.1281 56.6779 48.048C56.7725 47.6969 56.9844 47.4053 57.27 47.2083L68.5845 66.8767L62.0683 65.8841Z" fill="white"/>
<path d="M28.7983 25.9525C28.6192 26.5042 28.7686 27.1094 29.1839 27.5146L32.9568 31.1923L32.0654 36.3851C31.9672 36.957 32.2023 37.5348 32.6718 37.8758C33.1354 38.2126 33.7566 38.2644 34.2762 37.9919L38.9405 35.5395L43.6048 37.9919C44.1184 38.2614 44.7403 38.2162 45.2092 37.8758C45.6781 37.5348 45.9132 36.957 45.815 36.3851L44.9242 31.1917L48.697 27.5146C49.1124 27.1094 49.2618 26.5042 49.0821 25.9525C48.9029 25.4009 48.4263 24.9992 47.8526 24.9159L42.6384 24.1577L40.3068 19.4327C40.0497 18.9126 39.5201 18.5835 38.9405 18.5835C38.3603 18.5835 37.8306 18.9126 37.5742 19.4327L35.2426 24.1577L30.0284 24.9159C29.4541 24.9992 28.9775 25.4009 28.7983 25.9525ZM36.4738 27.0582C36.9695 26.9862 37.3992 26.6744 37.6206 26.2245L38.9405 23.5501L40.2598 26.2245C40.4818 26.6744 40.9108 26.9862 41.4072 27.0582L44.3594 27.4873L42.2236 29.5689C41.8648 29.9194 41.7005 30.4235 41.7856 30.918L42.2903 33.8583L39.6493 32.47C39.4273 32.3533 39.1839 32.295 38.9405 32.295C38.6971 32.295 38.4537 32.3533 38.2317 32.47L35.5907 33.8583L36.0954 30.918C36.1805 30.4235 36.0168 29.9194 35.6574 29.5689L33.5216 27.4873L36.4738 27.0582Z" fill="white"/>
</g>
<defs>
<clipPath id="clip0">
<rect width="78" height="78" fill="white" transform="translate(0 0.00012207)"/>
</clipPath>
</defs>
</svg>

<svg width="78" height="78" viewBox="0 0 78 78" fill="none" xmlns="http://www.w3.org/2000/svg"><g clip-path="url(#a)" fill="#fff"><path d="M40.464 12.49a1.524 1.524 0 1 1-3.047 0 1.524 1.524 0 0 1 3.047 0z"/><path d="M57.222 29.248c0-7.748-4.846-14.423-11.741-17.073a1.525 1.525 0 0 0-1.094 2.845c5.855 2.25 9.788 7.967 9.788 14.228 0 8.401-6.833 15.235-15.234 15.235-8.4 0-15.235-6.834-15.235-15.235 0-6.261 3.933-11.979 9.788-14.228a1.524 1.524 0 0 0-1.093-2.845C25.506 14.825 20.66 21.5 20.66 29.248c0 10.08 8.2 18.282 18.282 18.282 10.08 0 18.281-8.201 18.281-18.282z"/><path d="M60.265 46.305l1.207-.325a4.575 4.575 0 0 0 3.225-5.586 951.88 951.88 0 0 1-.996-3.749 1.5 1.5 0 0 1 .399-1.455l2.712-2.712a4.573 4.573 0 0 0 .006-6.455c-.917-.92-1.953-1.96-2.736-2.75a1.496 1.496 0 0 1-.381-1.459l.991-3.702a4.568 4.568 0 0 0-3.231-5.598l-3.704-.992a1.499 1.499 0 0 1-1.073-1.06c-.292-1.073-.674-2.491-1.012-3.745a4.575 4.575 0 0 0-5.585-3.225c-1.254.334-2.675.713-3.749.996a1.496 1.496 0 0 1-1.448-.391l-2.719-2.758a4.573 4.573 0 0 0-6.456-.008c-.893.89-2.005 2.037-2.75 2.776-.382.38-.928.524-1.458.381l-3.703-.991a4.562 4.562 0 0 0-5.595 3.221c-.338 1.255-.722 2.674-1.012 3.744a1.5 1.5 0 0 1-1.075 1.06l-3.701.992a4.568 4.568 0 0 0-3.232 5.598l.992 3.703c.142.53 0 1.075-.382 1.46-.782.788-1.82 1.829-2.734 2.747a4.572 4.572 0 0 0 .005 6.456l2.712 2.712c.387.388.537.932.4 1.455l-.996 3.747a4.562 4.562 0 0 0 3.233 5.589l1.198.321L5.078 68.1a1.524 1.524 0 0 0 1.55 2.265l8.44-1.285 3.105 7.95a1.525 1.525 0 0 0 2.74.206L33.66 55.08c.654.65 1.388 1.38 2.056 2.047a4.569 4.569 0 0 0 6.448.001l2.057-2.048L56.97 77.236a1.523 1.523 0 0 0 2.74-.205l3.105-7.95 8.44 1.284a1.522 1.522 0 1 0 1.55-2.266L60.264 46.306zm-40.41 26.659l-2.394-6.128a1.524 1.524 0 0 0-1.648-.952l-6.516.993 11.316-19.672c.282.197.49.485.583.828.291 1.071.675 2.49 1.012 3.743A4.562 4.562 0 0 0 27.803 55l2.822-.756-10.77 18.72zM40.012 54.97c-.59.59-1.552.59-2.144-.001-.921-.918-1.965-1.958-2.755-2.741a4.56 4.56 0 0 0-4.394-1.163l-3.705.992a1.518 1.518 0 0 1-1.863-1.072c-.338-1.256-.723-2.677-1.015-3.752a4.575 4.575 0 0 0-3.225-3.202l-3.704-.994a1.517 1.517 0 0 1-1.077-1.86c.423-1.588.767-2.881.997-3.756a4.576 4.576 0 0 0-1.191-4.386l-2.712-2.711a1.522 1.522 0 0 1-.003-2.15 2884.4 2884.4 0 0 0 2.74-2.753 4.573 4.573 0 0 0 1.163-4.394l-.992-3.703a1.523 1.523 0 0 1 1.077-1.866l3.701-.992a4.576 4.576 0 0 0 3.227-3.204l1.014-3.752a1.518 1.518 0 0 1 1.864-1.07l3.704.992a4.57 4.57 0 0 0 4.394-1.163c.778-.773 1.865-1.894 2.754-2.782a1.52 1.52 0 0 1 2.141-.003l2.72 2.76a4.578 4.578 0 0 0 4.386 1.19 961.7 961.7 0 0 0 3.758-.999 1.523 1.523 0 0 1 1.859 1.075c.338 1.256.72 2.678 1.014 3.754a4.575 4.575 0 0 0 3.225 3.202l3.702.992a1.523 1.523 0 0 1 1.077 1.867l-.992 3.702a4.57 4.57 0 0 0 1.163 4.393c.784.79 1.822 1.833 2.741 2.755.591.592.59 1.555-.004 2.149l-2.712 2.711a4.578 4.578 0 0 0-1.19 4.386c.283 1.078.663 2.503.998 3.758a1.523 1.523 0 0 1-1.072 1.859c-1.905.51-3.683.995-3.746 1.013a4.502 4.502 0 0 0-3.198 3.2c-.285 1.05-.72 2.67-1.007 3.734a1.518 1.518 0 0 1-1.864 1.072l-3.702-.991a4.56 4.56 0 0 0-4.395 1.161c-.79.784-1.835 1.824-2.757 2.743zm22.056 10.914a1.525 1.525 0 0 0-1.648.952l-2.394 6.128-10.77-18.72 2.821.756a4.564 4.564 0 0 0 5.596-3.224c.314-1.168.712-2.648 1.005-3.728.095-.351.306-.643.592-.84l11.315 19.669-6.517-.993z"/><path d="M28.798 25.953a1.524 1.524 0 0 0 .386 1.562l3.773 3.677-.892 5.193a1.524 1.524 0 0 0 2.211 1.607l4.664-2.453 4.665 2.453a1.525 1.525 0 0 0 2.21-1.607l-.89-5.193 3.772-3.677a1.523 1.523 0 0 0-.844-2.6l-5.215-.757-2.331-4.725a1.524 1.524 0 0 0-2.733 0l-2.331 4.725-5.215.758a1.523 1.523 0 0 0-1.23 1.037zm7.676 1.105a1.523 1.523 0 0 0 1.147-.834l1.32-2.674 1.319 2.674c.222.45.65.762 1.147.834l2.952.43-2.135 2.08c-.36.351-.523.855-.438 1.35l.504 2.94-2.64-1.388a1.522 1.522 0 0 0-1.418 0l-2.641 1.388.504-2.94a1.523 1.523 0 0 0-.438-1.35l-2.135-2.08 2.952-.43z"/></g><defs><clipPath id="a"><path fill="#fff" d="M0 0h78v78H0z"/></clipPath></defs></svg>
